images/icon_vk.svg

<svg width="32" height="32" viewBox="0 0 32 32" fill="none" xmlns="http://www.w3.org/2000/svg">
<circle cx="16" cy="16" r="16" fill="#5281B7"/>
<path d="M25.579 10.8548C25.719 10.3898 25.579 10.0488 24.917 10.0488H22.724C22.166 10.0488 21.911 10.3438 21.771 10.6678C21.771 10.6678 20.656 13.3868 19.076 15.1498C18.566 15.6628 18.333 15.8248 18.055 15.8248C17.916 15.8248 17.714 15.6628 17.714 15.1978V10.8548C17.714 10.2968 17.553 10.0488 17.088 10.0488H13.642C13.294 10.0488 13.084 10.3068 13.084 10.5528C13.084 11.0808 13.874 11.2028 13.955 12.6908V15.9188C13.955 16.6258 13.828 16.7548 13.548 16.7548C12.805 16.7548 10.997 14.0258 9.924 10.9018C9.715 10.2948 9.504 10.0498 8.944 10.0498H6.752C6.125 10.0498 6 10.3448 6 10.6688C6 11.2508 6.743 14.1308 9.461 17.9398C11.273 20.5408 13.824 21.9508 16.148 21.9508C17.541 21.9508 17.713 21.6378 17.713 21.0978V19.1318C17.713 18.5058 17.846 18.3798 18.287 18.3798C18.611 18.3798 19.169 18.5438 20.47 19.7968C21.956 21.2828 22.202 21.9498 23.037 21.9498H25.229C25.855 21.9498 26.168 21.6368 25.988 21.0188C25.791 20.4038 25.081 19.5088 24.139 18.4498C23.627 17.8458 22.862 17.1958 22.629 16.8708C22.304 16.4518 22.398 16.2668 22.629 15.8948C22.63 15.8958 25.301 12.1338 25.579 10.8548Z" fill="white"/>
</svg>

<svg width="32" height="32" fill="none" xmlns="http://www.w3.org/2000/svg"><circle cx="16" cy="16" r="16" fill="#5281B7"/><path d="M25.579 10.855c.14-.465 0-.806-.662-.806h-2.193c-.558 0-.813.295-.953.619 0 0-1.115 2.719-2.695 4.482-.51.513-.743.675-1.021.675-.139 0-.341-.162-.341-.627v-4.343c0-.558-.161-.806-.626-.806h-3.446c-.348 0-.558.258-.558.504 0 .528.79.65.871 2.138v3.228c0 .707-.127.836-.407.836-.743 0-2.551-2.73-3.624-5.853-.209-.607-.42-.852-.98-.852H6.752c-.627 0-.752.295-.752.619 0 .582.743 3.462 3.461 7.27 1.812 2.602 4.363 4.012 6.687 4.012 1.393 0 1.565-.313 1.565-.853v-1.966c0-.626.133-.752.574-.752.324 0 .882.164 2.183 1.417 1.486 1.486 1.732 2.153 2.567 2.153h2.192c.626 0 .939-.313.759-.931-.197-.615-.907-1.51-1.849-2.57-.512-.603-1.277-1.253-1.51-1.578-.325-.42-.231-.604 0-.976.001 0 2.672-3.761 2.95-5.04Z" fill="#fff"/></svg>
